X:16
T:Seerose-Juiz. 2009  Bb  ABCD
T:André von Moos-Müller (7.2.1957)
T:Dirigenten-Notiz  Edi Gasser
C:Unterwalden (CH)
%%partsbox
P:ABCD
M:3/4
R:Naturjodel
L:1/4
K:Bb
[P:A] fe | d>B A/B/ | ddc | B2c | d3 | e>G B/e/ | gfe | d>ed | c!fermata!f!fermata!e | 
d>B A/B/ | ddc | B2A | Gfe | d>B A/B/ | ddc | (B3 | !fermata!B) || 
L:1/8
M:3/4
[P:B] dc BD AG | F2CDE2 | FcB3A | BdF3z | dc BD AG | F2CDE2 | FcB2A2 | B4z2 | 
dc BD AG | F2CDE2 | FcB3A | BdF3z | dc BD AG | F2CDE2 | FcB2A2 | B4z2 || 
M:4/4
L:1/4
[P:C] G>edc | B>FdB | c>Afe | d>cB2 | G>edc | B>FdB | c>GBA | B3z | 
G>edc | B>FdB | c>Afe | d>cB2 | G>edc | B>Fdg | f>Adc | B4 || 
M:3/4
L:1/8
[P:D] f2e2 | dD FB AB | d2d2c2 | B4c2 | d6 | eG Be de | g2f2e2 | 
d3ed2 | !breath!c2 !fermata!f2!fermata!e2 | dD FB AB | d2d2c2 | B4A2 | G2f2e2 | 
dD FB AB | d2d2c2 | (B6 | B2)f2e2 | dD FB AB | d2d2c2 | (B6 | B2)z2z2 |] 
W:
%W:Reihenfolge: A - B - C - D
W:
W:notiert Edi Gasser. Angaben André von Moos
W:UJV-Naturjodelsammlung: Code-Nr: 37-0
W:http://www.naturjodler.ch/code 37.htm  (with AUDIO)
%Juni 6, 2018

